X:483
T:Slangpolska from Blekinge
T:ABCBC
Z:Henrik Norbeck
Z:Jack Campin, http://www.campin.me.uk/
F:Jack Campin's Nine-Note Tunebook
% last edit 03-02-2013
N:nice ocarina version: http://www.youtube.com/watch?v=KJ1C7lUjIo8
M:3/4
L:1/16
Q:1/4=120
P:ABCBC
K:DMin
P:A
    DE|TF2FD  E2EC D2DC|   DCDE  FEFG TA2  \
    DE|TF2FD  E2EC D2DD|[1 C2D2 TD6      :|\
                        [2 C2D2 TD4      ||
P:B
|:F2G2|TA4    c4   A4  |   A2GA  G4   TE3F|\
        G2GE  G2GE FEFG|[1 AGFE  FEFG    :|\
                        [2 AGFE  FEFG  A2||
P:C
|:DE|  TF2FD TE2EC D2DC|   DCDE  FEFG  A2  \
  DE|   F2FD TE2EC D2DD|[1 C2D2  D4    A2:|\
                        [2 C2D2  D6      |]

